X:1
T:My Ain Kind Dearie [2]
L:1/8
M:6/8
I:linebreak $
K:C
V:1 treble 
V:1
 c/B/ | AFE E2 F | A2 A AFA | B2 c d2 B | cAF F3 | AFE E2 F | A2 A c2 e | fed cdB | c2 A A2 |: %9
 c2 |$ d2 e fdB | c2 d ecA | B2 c d2 B | cAF F3 | AFE E2 F | A2 A c2 e | fed cdB | c2 A A2 :| %18
